X: 1
T: Redwing   [Gm]
T: Union Maid
R: polka
Z: 2004 John Chambers <jc@trillian.mit.edu>
N: This minor "Russian" form works quite well.
N: Forms of this tune are found throughout the British Isles and
N: Scandinavia, and many sets of words have been written to it.
M: 2/4
L: 1/8
K: Gm
zD \
|: "Gm"G>D GB | d3 B | "Cm"ce ge | "Gm"d3 B \
|  "D7"cc/B/ Ac | "Gm"BB/A/ GB |1 "A7"AG ^FG | "D7"A^F ED :|2 "D7"AG ^FA | "Gm"G2 |]
gf \
|: "Cm"e2 c2 | eg fe | "Gm"d2 B2- | Bd ed \
| "D7"c2 A2- |1 Ad ed | "Gm"d2 B2- | Bg ^f=f :|2 Ac BA | "Gm"G4- | G2 |]

%%sep 1 1 500
%%sep 1 1 500

